dist/assets/img/callback/name.svg

<svg width="15" height="15" viewBox="0 0 15 15" fill="none" xmlns="http://www.w3.org/2000/svg">
<path d="M14.991 14.621C14.71 13.379 13.104 12.773 12.549 12.578C11.8786 12.4091 11.1992 12.2786 10.514 12.187C10.1686 12.1245 9.84475 11.9752 9.573 11.753C9.47696 11.1156 9.45615 10.4692 9.511 9.827C9.68248 9.5571 9.83132 9.27346 9.956 8.979C10.0994 8.49385 10.209 7.99933 10.284 7.499C10.284 7.499 10.604 7.499 10.718 6.937C10.867 6.51398 10.9641 6.07443 11.007 5.628C10.984 5.179 10.737 5.191 10.737 5.191C10.9239 4.54113 11.0136 3.86715 11.003 3.191C10.915 2.32396 10.5082 1.52046 9.8616 0.93618C9.21498 0.351896 8.3745 0.0284195 7.503 0.0284195C6.63151 0.0284195 5.79103 0.351896 5.14441 0.93618C4.49778 1.52046 4.09105 2.32396 4.003 3.191C3.99529 3.86671 4.08351 4.54008 4.265 5.191C4.265 5.191 4.019 5.179 3.995 5.629C4.03793 6.07543 4.13498 6.51499 4.284 6.938C4.393 7.501 4.718 7.501 4.718 7.501C4.79296 8.00133 4.90256 8.49585 5.046 8.981C5.1707 9.27545 5.31955 9.55909 5.491 9.829C5.54552 10.4713 5.52437 11.1177 5.428 11.755C5.15625 11.9772 4.83242 12.1265 4.487 12.189C3.80179 12.2806 3.12236 12.4111 2.452 12.58C1.897 12.78 0.291998 13.38 0.00999824 14.623C-0.000104791 14.6689 0.000311644 14.7165 0.0112037 14.7623C0.0220957 14.808 0.0431867 14.8507 0.0729026 14.8872C0.102619 14.9236 0.140188 14.9529 0.182804 14.9728C0.22542 14.9927 0.271982 15.0026 0.319004 15.002H14.691C14.7375 15.0014 14.7832 14.9904 14.8249 14.9698C14.8666 14.9492 14.9031 14.9196 14.9319 14.883C14.9606 14.8465 14.9808 14.8041 14.9911 14.7587C15.0013 14.7134 15.0013 14.6663 14.991 14.621Z" fill="white"/>
</svg>

<svg width="15" height="15" fill="none" xmlns="http://www.w3.org/2000/svg"><path d="M14.991 14.621c-.281-1.242-1.887-1.848-2.442-2.043-.67-.169-1.35-.3-2.035-.391a2.068 2.068 0 01-.941-.434 8.227 8.227 0 01-.062-1.926c.171-.27.32-.554.445-.848.143-.485.253-.98.328-1.48 0 0 .32 0 .434-.562.149-.423.246-.863.289-1.309-.023-.449-.27-.437-.27-.437.187-.65.277-1.324.266-2a3.518 3.518 0 00-7 0c-.008.676.08 1.35.262 2 0 0-.246-.012-.27.438.043.446.14.886.289 1.309.109.563.434.563.434.563.075.5.185.995.328 1.48a5.8 5.8 0 00.445.848 8.227 8.227 0 01-.063 1.926 2.068 2.068 0 01-.941.434 18.2 18.2 0 00-2.035.391c-.555.2-2.16.8-2.442 2.043a.312.312 0 00.309.379h14.372a.311.311 0 00.3-.381z" fill="#fff"/></svg>
